X: 4731
T: Boys Of Ballisodare, The
R: reel
M: 4/4
K: Fmajor
c2FF cFdF|cFFA GFDF|c3 c cdcA|GcAG FDC2|
cF F2 cFdF|cF FA GFDE|FGAc dAcA|GcAG FD C2||
f3g a3g|f3g afde|f3g a3g|fedc (3A=Bc de|
fefg a3g|fefg afdf|afge fdcA|GcAG FDC c||
Ac c2 Acfc|Acfc AGGc|Ac c2 dAcA|GcAG FDC c|
Ac c2 Acfc|Acfc AGGc|d3 d d2 cA|GcAG FD C2||

